X:2365
T:[S]Helg yn Dreean 
C:Manx National Music 
C:Traditional
O:Isle of Man
Z:Kiaull Vannin 365 
M:6/8 
Q:150 
K:G 
d|g2g g2d|BGG G2g|a2a a2a|bag fed|g2g g2d|BAB c2c|d2d g2d|BGG !fine!G3|| 
B2B B2A|GFG Bcd|e2e g2e|dcB A3|B2B B2A|GFG Bcd|e2e g2e|d!D.C.!cB!fine! A3|| 

